build/redact/EraserOutline.svg

<svg xmlns="http://www.w3.org/2000/svg" fill="none" viewBox="0 0 24 24" focusable="false"><path d="M0 0H24V24H0z"/><path fill="#74767B" fill-rule="evenodd" d="M15.997 4.719L19.2337 7.9557C19.8976 8.61959 19.8976 9.69596 19.2337 10.3599L15.5519 14.0417L9.91107 8.40082L13.5929 4.719C14.2568 4.05511 15.3332 4.05511 15.997 4.719ZM8.99183 9.32006L4.8006 13.5113C4.13671 14.1752 4.13671 15.2515 4.8006 15.9154L8.0373 19.1521C8.33667 19.4515 8.71992 19.6159 9.11141 19.6453L9.36735 19.6453C9.75884 19.6159 10.1421 19.4515 10.4415 19.1521L14.6327 14.9609L8.99183 9.32006ZM11.7868 19.6453L20.153 11.2791C21.3246 10.1075 21.3246 8.20803 20.153 7.03646L16.9163 3.79976C15.7447 2.62819 13.8452 2.62819 12.6736 3.79976L3.88137 12.592C2.70979 13.7636 2.70979 15.6631 3.88136 16.8347L7.11806 20.0714C7.64864 20.602 8.32851 20.8922 9.02245 20.9423C9.03564 20.9435 9.04894 20.9444 9.06234 20.9449C9.17793 20.9517 9.29384 20.9518 9.40944 20.9453L16.4204 20.9453C16.7794 20.9453 17.0704 20.6542 17.0704 20.2953C17.0704 19.9363 16.7794 19.6453 16.4205 19.6453L11.7868 19.6453Z"/></svg>

<svg xmlns="http://www.w3.org/2000/svg" fill="none" viewBox="0 0 24 24" focusable="false"><path fill="#74767B" fill-rule="evenodd" d="m15.99 4.71 3.24 3.24c.66.66.66 1.74 0 2.4l-3.68 3.69L9.91 8.4l3.68-3.69c.66-.66 1.74-.66 2.4 0m-7 4.61L4.8 13.51c-.67.66-.67 1.74 0 2.4l3.23 3.24c.3.3.68.46 1.08.49h.25c.39-.03.78-.19 1.08-.49l4.19-4.19zm2.79 10.32 8.37-8.37a3 3 0 0 0 0-4.24l-3.24-3.24a3 3 0 0 0-4.24 0l-8.79 8.8a2.98 2.98 0 0 0 0 4.24l3.23 3.24c.53.53 1.21.82 1.91.87h.04c.11.01.23.01.34 0h7.02c.35 0 .65-.29.65-.65s-.3-.65-.65-.65z"/></svg>
